X: 37023
N: Wisp of Thistle
N: 8 x 32S 3C (Pat Kent/RSCDS Bk 37)
T: The Thorn Bush
M: 4/4
R: Strathspey
C: by James Fraser, Hunter Colln.
C: arr. T. Traub 12-19-1997
L: 1/8
%
K: A
|: E|"A"A>Bc>A "D"F<A"A"E>C|"Bm"B,<BB>c "D"d/c/B/A/ "E"G<B|"A"A>Bc>A "D"F<A"A"E>C|"D"D>F"E"E>G "A"A<A, A, :|
e|"A"d/c/B/A/ e>A "D"f>a"A"e>c|"Bm"d>B "D"d/c/B/A/ "E"G<BB>e|"A"d/c/B/A/ e>A "D"f>a"A"e>c|"Bm"d>B "E"e/c/B/A/ "A"E<AA>e|
"A"d/c/B/A/ e>A "D"f>a"A"e>c|"Bm"d>B "D"d/c/B/A/ "E"G<BB>d|"A"(3cAc (3ece "D"(3fdf (3agf|"A"(3edc "E"(3cBA "A"E<A A |]
%%center Book37/37041-Thorn_Bush-TT.abc

%%sep 1 1 500
%%sep 1 1 500

